src/icons/fortran.svg

<svg viewBox="0 0 16 16" xmlns="http://www.w3.org/2000/svg">
  <path
    d="M12.564 5.092H11.949C11.8343 4.66 11.5937 4.198 11.227 3.706C10.8663 3.214 10.519 2.94333 10.185 2.894C10.0157 2.872 9.81333 2.85567 9.578 2.845C9.34867 2.83433 9.08633 2.829 8.791 2.829H6.839V7.504H8.176C8.58067 7.504 8.895 7.463 9.119 7.381C9.343 7.29367 9.53433 7.16233 9.693 6.987C9.80233 6.867 9.90067 6.681 9.988 6.429C10.0813 6.17233 10.1413 5.899 10.168 5.609H10.792V10.178H10.169C10.1523 9.93733 10.095 9.664 9.997 9.358C9.90367 9.05133 9.80233 8.82967 9.693 8.693C9.529 8.491 9.32133 8.35433 9.07 8.283C8.82333 8.20633 8.52533 8.168 8.176 8.168H6.839V12.178C6.839 12.3593 6.87467 12.521 6.946 12.663C7.01667 12.805 7.14233 12.9197 7.323 13.007C7.405 13.0457 7.58267 13.0923 7.856 13.147C8.12933 13.2017 8.337 13.2317 8.479 13.237V13.819H3.435V13.237C3.599 13.2263 3.81767 13.2097 4.091 13.187C4.36433 13.1603 4.542 13.1277 4.624 13.089C4.788 13.0183 4.90567 12.9147 4.977 12.778C5.05367 12.6353 5.092 12.4657 5.092 12.269V3.87C5.092 3.69 5.062 3.53167 5.002 3.395C4.942 3.25233 4.816 3.13733 4.624 3.05C4.47667 2.97933 4.27733 2.91633 4.026 2.861C3.77933 2.80633 3.58267 2.77367 3.436 2.763V2.181H12.564V5.092Z"
    fill="#FF7043"
  />
</svg>

<svg viewBox="0 0 16 16" xmlns="http://www.w3.org/2000/svg">
  <g style="fill: #ff7043" aria-label="F">
    <path
      d="M12.564 5.092h-.615q-.172-.648-.722-1.386-.541-.738-1.042-.812-.254-.033-.607-.049-.344-.016-.787-.016H6.839v4.675h1.337q.607 0 .943-.123.336-.131.574-.394.164-.18.295-.558.14-.385.18-.82h.624v4.569h-.623q-.025-.361-.172-.82-.14-.46-.304-.665-.246-.303-.623-.41-.37-.115-.894-.115H6.839v4.01q0 .272.107.485.106.213.377.344.123.058.533.14.41.082.623.09v.582H3.435v-.582q.246-.016.656-.05.41-.04.533-.098.246-.106.353-.311.115-.214.115-.509V3.87q0-.27-.09-.475-.09-.214-.378-.345-.221-.106-.598-.189-.37-.082-.59-.098v-.582h9.128z"
      style="fill: #ff7043; stroke-width: 1.1453"
    />
  </g>
</svg>
